src/lib/packages/icons/src/assets/filled/bookmarks-check.svg

<svg width="24" height="24" viewBox="0 0 24 24" fill="none" xmlns="http://www.w3.org/2000/svg">
<path d="M19.9971 4.56995V18L19.99 17.986V18L17.6411 16.656C17.5471 16.603 17.49 16.503 17.49 16.396C17.49 16.396 17.49 8.50495 17.49 8.47095C17.449 5.98395 15.9439 4.501 13.4299 4.5H8.21704C8.04304 4.5 7.9911 4.34805 8.0061 4.17505C8.1311 2.73105 8.98506 2 10.5601 2H17.4199H17.427C19.137 2 19.9971 2.85995 19.9971 4.56995ZM16 8.57104V22L10 18.572L4 22V8.57104C4 6.85705 4.85704 6 6.57104 6H13.428C15.143 6 16 6.85705 16 8.57104ZM12.53 10.636C12.237 10.343 11.762 10.343 11.469 10.636L9.33203 12.7729L8.52905 11.97C8.23705 11.678 7.76202 11.677 7.46802 11.97C7.17502 12.262 7.17502 12.738 7.46802 13.031L8.80103 14.364C8.94203 14.505 9.13205 14.584 9.33105 14.584C9.53005 14.584 9.72108 14.505 9.86108 14.364L12.5281 11.697C12.8231 11.404 12.823 10.929 12.53 10.636Z" fill="currentColor"/>
</svg>

<svg xmlns="http://www.w3.org/2000/svg" width="24" height="24" fill="none"><path fill="currentColor" d="M19.997 4.57V18l-.007-.014V18l-2.349-1.344a.298.298 0 0 1-.151-.26V8.471c-.041-2.487-1.546-3.97-4.06-3.971H8.217c-.174 0-.226-.152-.21-.325C8.13 2.731 8.984 2 10.56 2h6.867c1.71 0 2.57.86 2.57 2.57ZM16 8.57V22l-6-3.428L4 22V8.571C4 6.857 4.857 6 6.571 6h6.857C15.143 6 16 6.857 16 8.571Zm-3.47 2.065a.75.75 0 0 0-1.061 0l-2.137 2.137-.803-.803a.751.751 0 0 0-1.061 1.061l1.333 1.333a.749.749 0 0 0 1.06 0l2.667-2.667a.748.748 0 0 0 .002-1.061Z"/></svg>
